Sources/FrostedUI/Resources/Icons.xcassets/collapseSidebar12.imageset/collapse-sidebar-12.svg

<svg width="12" height="12" viewBox="0 0 12 12" fill="none" xmlns="http://www.w3.org/2000/svg" data-fui-icon="true">
  <path
    d="M9 1C10.6569 1 12 2.34315 12 4V8C12 9.65685 10.6569 11 9 11H3C1.34315 11 6.44255e-08 9.65685 0 8V4C6.44266e-08 2.34315 1.34315 1 3 1H9ZM3 2.5C2.17157 2.5 1.5 3.17157 1.5 4V8C1.5 8.82843 2.17157 9.5 3 9.5H4V2.5H3ZM5.5 9.5H9C9.82843 9.5 10.5 8.82843 10.5 8V4C10.5 3.17157 9.82843 2.5 9 2.5H5.5V9.5Z"
    fill="currentColor"
  />
</svg>

<svg xmlns="http://www.w3.org/2000/svg" width="12" height="12" fill="none" data-fui-icon="true" viewBox="0 0 12 12"><path fill="currentColor" d="M9 1a3 3 0 0 1 3 3v4a3 3 0 0 1-3 3H3a3 3 0 0 1-3-3V4a3 3 0 0 1 3-3zM3 2.5A1.5 1.5 0 0 0 1.5 4v4A1.5 1.5 0 0 0 3 9.5h1v-7zm2.5 7H9A1.5 1.5 0 0 0 10.5 8V4A1.5 1.5 0 0 0 9 2.5H5.5z"/></svg>
